X:203
T: Xiu he bao
N: C0329
O: China, Jiangsu, Wuxi, Sd)
S: III, 483]
N: Nicht verwandt mit dem des Nordens!  Einige Verzierungen. Vorspiel
N: weggelassen.
R: Xiaodiao, Shidiao, Jiandianhua diao, Chang Huahui, Siji, Lishi Deng]
M: 2/4
L: 1/16
K: C
A3cd2ed | cAG4Ac | E3GAdcA | cAG6
d2c2d2c2 | cdAGEGE2 | G2AGE2G2 | c2A6
GEGAc3A | GcAGEGE2 | EGAcAGE2 | GED4GE | DEG2AGED | CA,D2C4

